source/img/svg/tw-icon.svg

<svg width="21" height="15" viewBox="0 0 21 15" fill="none" xmlns="http://www.w3.org/2000/svg">
<path d="M18.7267 6.69699C19.8538 6.604 20.6183 6.09162 20.9125 5.39639C20.5059 5.64614 19.2439 5.91843 18.5469 5.65911C18.5127 5.49535 18.4745 5.3398 18.4371 5.19936C17.906 3.24921 16.0876 1.6781 14.1823 1.8679C14.3364 1.80566 14.4928 1.74771 14.6487 1.69569C14.8584 1.62057 16.0889 1.42037 15.8951 0.98604C15.7318 0.604016 14.2284 1.27475 13.9454 1.36242C14.319 1.22189 14.937 0.980161 15.0032 0.550781C14.4307 0.629304 13.8688 0.899959 13.4345 1.29351C13.5913 1.12475 13.7102 0.919088 13.7355 0.697749C12.2086 1.6732 11.3166 3.63977 10.5948 5.54742C10.028 4.99813 9.52568 4.56558 9.07502 4.32539C7.81077 3.64742 6.29915 2.94006 3.92624 2.05919C3.85341 2.84428 4.31452 3.88817 5.6432 4.58237C5.35533 4.54384 4.82891 4.62982 4.40788 4.73065C4.57934 5.63005 5.13931 6.37105 6.65528 6.72937C5.96247 6.77509 5.60443 6.93274 5.27993 7.27254C5.59547 7.89807 6.36545 8.63426 7.75054 8.48314C6.21059 9.14688 7.12264 10.376 8.37569 10.1927C6.23807 12.4007 2.86788 12.2384 0.932617 10.3917C5.98548 17.2769 16.9692 14.4636 18.6061 7.83182C19.8324 7.84227 20.5534 7.40701 21.0004 6.92715C20.2938 7.04705 19.2697 6.92313 18.7267 6.69699Z" fill="#A07B50"/>
</svg>

<svg width="21" height="15" fill="none" xmlns="http://www.w3.org/2000/svg"><path d="M18.727 6.697c1.127-.093 1.891-.605 2.186-1.3-.407.25-1.67.521-2.366.262a8.722 8.722 0 00-.11-.46c-.531-1.95-2.35-3.52-4.255-3.331.154-.062.31-.12.467-.172.21-.075 1.44-.276 1.246-.71-.163-.382-1.667.289-1.95.376.374-.14.992-.382 1.058-.811a2.985 2.985 0 00-1.569.743c.157-.17.276-.375.302-.596-1.527.975-2.42 2.942-3.141 4.85-.567-.55-1.07-.982-1.52-1.223C7.811 3.647 6.299 2.94 3.926 2.06c-.073.785.389 1.83 1.717 2.523-.288-.038-.814.048-1.235.149.171.899.731 1.64 2.247 1.998-.693.046-1.05.204-1.375.544.315.625 1.085 1.361 2.47 1.21-1.54.664-.627 1.893.626 1.71-2.138 2.208-5.508 2.045-7.443.199 5.052 6.885 16.036 4.072 17.673-2.56 1.226.01 1.947-.425 2.394-.905-.706.12-1.73-.004-2.273-.23z" fill="#A07B50"/></svg>
